X:1
T:Too Young to Marry
L:1/8
M:C|
I:linebreak $
K:D
V:1 treble
V:1
 f2 g2 |"D" aAbA aAeg | fd-  d2 d2 fg | aAbA aAga |"Em" bgbg "A" e2 fg |$
"D" aAbA aAeg | fc-  c2 c2 ef | "G" gfed "A" cABc |"D" d6 ::$
 AB |"D" dBAG FEDE | FABc d2 AB | dBAG FE D2 |"A" E3 F E2 AB |$
"D" dBAG FEDE |"G" FABc d4 | "A" ABcd egfe |"D" d6 :|
